X: 153
T: La Galliard
%R: jig
B: Chas & Sam Thompson "Twenty Four Country Dances for the Year 1782", London 1782, p.77 #1
F: http://www.vwml.org/browse/browse-collections-dance-tune-books/browse-thompsons1782
Z: 2014 John Chambers <jc:trillian.mit.edu> (added dance description)
M: 6/8
L: 1/8
K: E
% - - - - - - - - - - - - - - - - - - - - - - - - - - - - -
G/A/ |\
B2B BAG | cAF FGA | BGE EDE | [fF][dD][BB,] [B2B,2] G/A/ |\
B2B BAG | cAF FGA | BGE FEF | E3 E2 :|
|: e/f/ |\
gbg e2B | cec B3 | fga bag | gff f2e/f/ |\
gbg e2B | cec B3 | cag fed | e3 E2 :|
% - - - - - - - - - - Dance description - - - - - - - - - -
%%begintext align
%% First & 2d Cu: la Paussett .|. 1st 2d & 3d Cu: Promanade
%% round with their Partners :|. lead down the
%% middle up again and cast of .|: Allmand with your
%% Partner :|:
%%endtext

%%sep 1 1 500
%%sep 1 1 500
